X: 42133
T: Washington, The
R: hornpipe
M: 4/4
K: Amajor
ABcd eAA/A/A|fAgA aAA/A/A|fA eA dA cA|B/c/B GB AGFE|
ABcd eAA/A/A|fAgA aAA/A/A|fA eA dA cA|B/c/B GB A2E2:|
ADD/D/D BDD/D/D|dcBA BAFD|dcBA BA=GF|E/F/ECE DCB,A,|
ADD/D/D BDD/D/D|dcBA BAFD|dcBA BA=GF|1 E/F/ECE D2E/F/=G:|2 E/F/ECE D4||

